icons/editor/small-caps.svg

<svg width="32" height="32" viewBox="0 0 32 32" xmlns="http://www.w3.org/2000/svg">
    <path fill-rule="evenodd" d="M13 8h7V6H4v2h7v18h2V8zm11 8h4v-2H18v2h4v10h2V16z"/>
</svg>

<svg width="32" height="32" viewBox="0 0 32 32" fill="none" xmlns="http://www.w3.org/2000/svg">
<path fill-rule="evenodd" clip-rule="evenodd" d="M13 8H20V6H4V8H11V26H13V8ZM24 16H28V14H18V16H22V26H24V16Z" fill="black"/>
</svg>
